surface rough
    [[ string description = "Microfacet surface" ]]
(
    color Cs = 1
        [[  string description = "Base color",
            float UImin = 0, float UImax = 1 ]],
    float roughness = 0.28
        [[  string description = "Roughness",
            float UImin = 0, float UImax = 1 ]]
)
{
    Ci = Cs * microfacet("beckmann", N, roughness, 1.5, 0);
}