surface emitter
    [[ string description = "Lambertian emitter material" ]]
(
    color Cs = 1
        [[  string description = "Base color",
            float UImin = 0, float UImax = 1 ]]
)
{
    Ci = kp_emitter(0.5);
}
