
shader bump
[[
    string node_name = "bump",
    string category = "bump",
    string help = "bump node"
]]
(
    string nmlpath = "../texture/normalmap.png"
    [[
        string label = "Normal map file path",
        int connectable = 0
    ]]
)
{
    normal lookup_normal = (normal)texture(filename, u, v) * 2 - 1;
    return normalize(lookup_normal);
}