
shader bump
[[
    string node_name = "bump",
    string category = "bump",
    string help = "bump node"
]]
(
    string nmlpath = "../texture/normalmap.png"
    [[
        string label = "Normal map file path",
        int connectable = 0
    ]],
    output normal out_normal = normal(0, 1, 0)
)
{
    normal nml = (normal)texture(nmlpath, u, v) * 2 - 1;
    out_normal = normalize(normal(nml.x, nml.z, nml.y));
    Ci = 0;
}