shader kp_env
[[
    string node_name = "env",
    string category = "shader",
    string help = "environment shader"
]]
(
    string filename = ""
    [[
        string label = "Enviroment texture map filename",
        int connectable = 0
    ]]
)
{
    Ci = environment(filename, -I);
}