shader kp_env
[[
    string node_name = "env",
    string category = "shader",
    string help = "environment shader"
]]
(
    string filename = "../texture/alps_field_1k.exr"
    [[
        string label = "Enviroment texture map filename",
        int connectable = 0
    ]]
)
{
    Ci = color(environment(filename, I)) * background();
}