shader kp_lambert
[[
    string node_name = "lambert",
    string category = "shader",
    string help = "standard lambert diffuse"
]]
(
    color base_color = color(0.5)
    [[
        string label = "Base Color",
        int connectable = 1
    ]],
    normal bump_normal = normal(0, 1, 0)
    [[
        string label = "Normal mapping",
        int connectable = 1
    ]]
)
{
    N = bump_normal;
    Ci = base_color * diffuse(bump_normal);
}